X: 2875
T: Barn Dance Schottische, The
R: barndance
M: 4/4
K: Cmajor
c>d|e2 c2 cGcd|e2 d2 d2 de|f2 B2 BABc|d2 c2 c2 cd|
e2 c2 cBcd|e2 d2 d2 e2|f2 B2 BdBA|G2 c2 c2||
BA|[E2G2] C2 CCDE|F2 D2 D2 A2|c2 BA GABc|d2 c2 c2 BA|
E2 C2 CCDE|F2 FE D4|BdBA GABc|d2 c2 c2||

